Adwaita++/actions/symbolic/edit-clear-symbolic-rtl.svg

<svg height="16" width="16" xmlns="http://www.w3.org/2000/svg">
  <path d="m10 2 6 6-6 6h-9.035a1.03 1.03 0 0 1 -.965-1v-10c0-.53.346-1 1.009-1zm-1 3h-1.031a1.04 1.04 0 0 0 -.688.313l-1.281 1.28-1.313-1.28c-.264-.231-.445-.307-.687-.313h-1v1c0 .286.034.55.25.75l1.281 1.281-1.25 1.25a1.015 1.015 0 0 0 -.281.719v1h1c.265 0 .53-.093.719-.281l1.281-1.281 1.281 1.28c.188.189.454.282.719.282h1v-1c0-.265-.093-.53-.281-.719l-1.281-1.25 1.28-1.281a.909.909 0 0 0 .282-.75z" fill="#474747"/>
</svg>

<svg xmlns="http://www.w3.org/2000/svg" width="16" height="16">
    <path d="M10 2l6 6-6 6H.965A1.03 1.03 0 0 1 0 13V3c0-.53.346-1 1.009-1zM9 5H7.969a1.04 1.04 0 0 0-.688.313L6 6.593l-1.313-1.28C4.423 5.082 4.242 5.006 4 5H3v1c0 .286.034.55.25.75l1.281 1.281-1.25 1.25A1.015 1.015 0 0 0 3 10v1h1c.265 0 .53-.093.719-.281L6 9.438l1.281 1.28c.188.189.454.282.719.282h1v-1c0-.265-.093-.53-.281-.719l-1.281-1.25 1.28-1.281A.909.909 0 0 0 9 6z" style="marker:none" color="#000" overflow="visible" fill="#474747"/>
</svg>
